Obsidian-SemiLight/actions/16s/view-calendar-journal.svg

<svg viewBox="0 0 16 16" xmlns="http://www.w3.org/2000/svg"><path d="m1 2v12h9v-12zm7 1h1v10h-1zm3 2v7l1.5 2 1.5-2v-7zm1 1h1v5h-1z" fill="#4d4d4d"/></svg>

<svg xmlns="http://www.w3.org/2000/svg" viewBox="0 0 16 16">
  <defs id="defs3051">
    <style type="text/css" id="current-color-scheme">
      .ColorScheme-Text {
        color:#4d4d4d;
      }
      </style>
  </defs>
 <path style="fill:currentColor;fill-opacity:1;stroke:none" 
     d="M 1 2 L 1 14 L 10 14 L 10 2 L 1 2 z M 8 3 L 9 3 L 9 13 L 8 13 L 8 3 z M 11 5 L 11 12 L 12.5 14 L 14 12 L 14 5 L 11 5 z M 12 6 L 13 6 L 13 11 L 12 11 L 12 6 z "
     class="ColorScheme-Text"
     />
</svg>
